src/blocks/sprite-svg/svg/checked.svg

<?xml version="1.0" encoding="UTF-8"?>
<svg width="30px" height="32px" viewBox="0 0 30 32" version="1.1" xmlns="http://www.w3.org/2000/svg" xmlns:xlink="http://www.w3.org/1999/xlink">
    <title>Checked</title>
    <g id="Desktop" stroke="none" stroke-width="1" fill="none" fill-rule="evenodd">
        <g id="Additional-work-[3]" transform="translate(-307.000000, -45.000000)">
            <g id="ic/checked" transform="translate(307.000000, 45.000000)">
                <path d="M23.2173913,18.1333333 C19.4775652,18.1333333 16.4347826,21.2437333 16.4347826,25.0666667 C16.4347826,28.8896 19.4775652,32 23.2173913,32 C26.9572174,32 30,28.8896 30,25.0666667 C30,21.2437333 26.9572174,18.1333333 23.2173913,18.1333333 Z" id="Shape" fill="#2FB74F" fill-rule="nonzero"></path>
                <path d="M25.9194783,22.0954667 L22.9998261,26.3834667 L20.9394783,24.6544 C20.7172174,24.4672 20.388,24.5008 20.2053913,24.7285333 C20.0222609,24.9562667 20.0546087,25.2922667 20.277913,25.4789333 L22.7749565,27.5744 C22.8688696,27.6528 22.9857391,27.6954667 23.1057391,27.6954667 C23.1292174,27.6954667 23.1532174,27.6938667 23.1772174,27.6906667 C23.3212174,27.6698667 23.4506087,27.5893333 23.534087,27.4672 L26.7761739,22.7050667 C26.9405217,22.4634667 26.8826087,22.1306667 26.6457391,21.9626667 C26.4088696,21.7936 26.0843478,21.8538667 25.9194783,22.0954667 Z" id="Path" fill="#FFFFFF"></path>
                <path d="M14.8961739,25.6 L14.8961739,24.5333333 C14.9655652,23.3909333 15.2546087,22.3109333 15.7226087,21.3333333 L16.3210435,20.2666667 C17.8257391,18.0149333 20.3551304,16.5333333 23.2173913,16.5333333 C23.7526957,16.5333333 24.2749565,16.5898667 24.7826087,16.6890667 L24.7826087,7.7792 L17.1725217,0 L0.260869565,0 L0.260869565,32 L18.3693913,32 C16.3878261,30.5482667 15.0568696,28.2362667 14.8961739,25.6 Z" id="Shape" fill="#DDEBE0" fill-rule="nonzero"></path>
                <polygon id="Path" fill="#2FB74F" points="17.4782609 2.13333333 22.6956522 7.46666667 17.4782609 7.46666667"></polygon>
                <path d="M4.04347826,8.8 L9.26086957,8.8 C9.54886957,8.8 9.7826087,9.0384 9.7826087,9.33333333 C9.7826087,9.62826667 9.54886957,9.86666667 9.26086957,9.86666667 L4.04347826,9.86666667 C3.75547826,9.86666667 3.52173913,9.62826667 3.52173913,9.33333333 C3.52173913,9.0384 3.75547826,8.8 4.04347826,8.8 Z" id="Path" fill="#2FB74F"></path>
                <path d="M3.9468599,13.0666667 L14.5748792,13.0666667 C14.8095459,13.0666667 15,13.3050667 15,13.6 C15,13.8949333 14.8095459,14.1333333 14.5748792,14.1333333 L3.9468599,14.1333333 C3.71219324,14.1333333 3.52173913,13.8949333 3.52173913,13.6 C3.52173913,13.3050667 3.71219324,13.0666667 3.9468599,13.0666667 Z" id="Path" fill="#2FB74F"></path>
                <path d="M3.82608696,17.3333333 L11.4347826,17.3333333 C11.6027826,17.3333333 11.7391304,17.5717333 11.7391304,17.8666667 C11.7391304,18.1616 11.6027826,18.4 11.4347826,18.4 L3.82608696,18.4 C3.65808696,18.4 3.52173913,18.1616 3.52173913,17.8666667 C3.52173913,17.5717333 3.65808696,17.3333333 3.82608696,17.3333333 Z" id="Path" fill="#2FB74F"></path>
            </g>
        </g>
    </g>
</svg>

<svg width="100%" height="100%" viewBox="0 0 30 32" xmlns="http://www.w3.org/2000/svg"><path d="M23.217 18.133c-3.74 0-6.782 3.11-6.782 6.934 0 3.823 3.043 6.933 6.782 6.933C26.957 32 30 28.89 30 25.067s-3.043-6.934-6.783-6.934z" fill="#2FB74F" /><path d="M25.92 22.095L23 26.383l-2.06-1.729a.513.513 0 0 0-.735.075.54.54 0 0 0 .073.75l2.497 2.095a.516.516 0 0 0 .76-.107l3.241-4.762a.54.54 0 0 0-.13-.742.514.514 0 0 0-.727.132z" fill="#FFF"/><path d="M14.896 25.6v-1.067a8.602 8.602 0 0 1 .827-3.2l.598-1.066c1.505-2.252 4.034-3.734 6.896-3.734.536 0 1.058.057 1.566.156V7.78L17.173 0H.26v32h18.108a8.566 8.566 0 0 1-3.473-6.4z" fill="#DDEBE0"/><path fill="#2FB74F" d="M17.478 2.133l5.218 5.334h-5.218zM4.043 8.8h5.218c.288 0 .522.238.522.533a.527.527 0 0 1-.522.534H4.043a.527.527 0 0 1-.521-.534c0-.295.233-.533.521-.533zM3.947 13.067h10.628c.235 0 .425.238.425.533 0 .295-.19.533-.425.533H3.947c-.235 0-.425-.238-.425-.533 0-.295.19-.533.425-.533zM3.826 17.333h7.609c.168 0 .304.239.304.534 0 .295-.136.533-.304.533H3.826c-.168 0-.304-.238-.304-.533 0-.295.136-.534.304-.534z"/></svg>
